svg/color/polygon.svg

<svg width="32" height="32" viewBox="0 0 32 32" fill="none" xmlns="http://www.w3.org/2000/svg">
<path d="M16 32C24.8366 32 32 24.8366 32 16C32 7.16344 24.8366 0 16 0C7.16344 0 0 7.16344 0 16C0 24.8366 7.16344 32 16 32Z" fill="#7B3FE4"/>
<path d="M26.6665 16.3735V21.2004C26.6648 21.5015 26.5853 21.7969 26.4357 22.0578C26.2861 22.3187 26.0716 22.5362 25.8132 22.689L21.6465 25.0975C21.3885 25.2519 21.0936 25.3334 20.7932 25.3334C20.4928 25.3334 20.1979 25.2519 19.9399 25.0975L15.7732 22.689C15.5148 22.5362 15.3003 22.3187 15.1507 22.0578C15.0012 21.7969 14.9216 21.5015 14.9199 21.2004V19.8457L17.0532 18.603V20.9579L20.7865 23.1322L24.5199 20.9579V16.6193L20.7865 14.445L12.0399 19.5296C11.7794 19.6768 11.4855 19.7542 11.1865 19.7542C10.8876 19.7542 10.5937 19.6768 10.3332 19.5296L6.16652 17.1111C5.91208 16.9559 5.70172 16.7376 5.55576 16.4772C5.4098 16.2167 5.33316 15.923 5.3332 15.6242V10.7972C5.33492 10.4962 5.41448 10.2008 5.56404 9.93984C5.71364 9.67892 5.92812 9.4614 6.18652 9.3086L10.3532 6.90012C10.6118 6.74728 10.9064 6.66668 11.2065 6.66668C11.5066 6.66668 11.8013 6.74728 12.0599 6.90012L16.2265 9.3086C16.485 9.4614 16.6994 9.67892 16.849 9.93984C16.9986 10.2008 17.0781 10.4962 17.0799 10.7972V12.1519L14.9332 13.3863V11.0447L11.1999 8.8704L7.46652 11.0447V15.3783L11.1999 17.5526L19.9465 12.468C20.207 12.3208 20.5009 12.2434 20.7999 12.2434C21.0988 12.2434 21.3927 12.3208 21.6532 12.468L25.8199 14.8866C26.0768 15.0401 26.2898 15.2577 26.4382 15.5182C26.5865 15.7788 26.6652 16.0734 26.6665 16.3735Z" fill="white"/>
</svg>

<svg xmlns="http://www.w3.org/2000/svg" width="32" height="32" fill="none" viewBox="0 0 32 32"><path fill="#7B3FE4" d="M16 32c8.837 0 16-7.163 16-16S24.837 0 16 0 0 7.163 0 16s7.163 16 16 16"/><path fill="#fff" d="M26.667 16.374V21.2a1.74 1.74 0 0 1-.854 1.489l-4.166 2.409a1.66 1.66 0 0 1-1.707 0l-4.167-2.409a1.74 1.74 0 0 1-.853-1.489v-1.354l2.133-1.243v2.355l3.733 2.174 3.734-2.174v-4.339l-3.733-2.174-8.747 5.085a1.74 1.74 0 0 1-1.707 0l-4.166-2.42a1.74 1.74 0 0 1-.834-1.487v-4.827a1.74 1.74 0 0 1 .854-1.488L10.353 6.9a1.68 1.68 0 0 1 1.707 0l4.167 2.409a1.74 1.74 0 0 1 .853 1.488v1.355l-2.147 1.234v-2.341L11.2 8.87l-3.733 2.175v4.333l3.733 2.175 8.747-5.085a1.74 1.74 0 0 1 1.706 0l4.167 2.419a1.74 1.74 0 0 1 .846 1.486"/></svg>
